public/library/mev-x-icon-dark.svg

<svg width="64" height="64" viewBox="0 0 64 64" fill="none" xmlns="http://www.w3.org/2000/svg">
<circle cx="32" cy="32" r="32" fill="black"/>
<path d="M8.15463 31.9808V39.5068H6.54004V30.1144H8.06781L8.15463 31.9808ZM7.82476 34.4548L7.07823 34.4287C7.08402 33.7864 7.16793 33.1932 7.32996 32.6492C7.49201 32.0994 7.73217 31.622 8.05046 31.2169C8.36874 30.8118 8.76515 30.4993 9.23969 30.2794C9.71423 30.0537 10.264 29.9409 10.889 29.9409C11.3288 29.9409 11.7339 30.0045 12.1043 30.1318C12.4746 30.2534 12.7958 30.4472 13.0678 30.7135C13.3398 30.9796 13.551 31.3211 13.7015 31.7378C13.852 32.1544 13.9272 32.6579 13.9272 33.2482V39.5068H12.3213V33.3263C12.3213 32.8344 12.2374 32.4409 12.0695 32.1458C11.9075 31.8505 11.676 31.6364 11.3751 31.5034C11.0742 31.3645 10.7212 31.295 10.3161 31.295C9.84154 31.295 9.44514 31.3789 9.12684 31.5467C8.80855 31.7146 8.55393 31.9461 8.36295 32.2413C8.17198 32.5364 8.0331 32.8749 7.94629 33.2569C7.86527 33.633 7.82476 34.0323 7.82476 34.4548ZM13.9098 33.5694L12.8334 33.8992C12.8392 33.3842 12.9231 32.8894 13.0852 32.4148C13.253 31.9403 13.4932 31.5178 13.8057 31.1474C14.1239 30.7771 14.5146 30.4848 14.9775 30.2707C15.4405 30.0508 15.97 29.9409 16.566 29.9409C17.0695 29.9409 17.5152 30.0074 17.9029 30.1405C18.2964 30.2737 18.6263 30.4791 18.8925 30.7568C19.1645 31.0288 19.3699 31.3789 19.5087 31.8072C19.6477 32.2354 19.7171 32.7447 19.7171 33.335V39.5068H18.1025V33.3176C18.1025 32.791 18.0187 32.383 17.8508 32.0936C17.6888 31.7985 17.4573 31.5931 17.1564 31.4773C16.8612 31.3558 16.5083 31.295 16.0973 31.295C15.7443 31.295 15.4318 31.3558 15.1598 31.4773C14.8878 31.5989 14.6592 31.7667 14.4741 31.9808C14.2889 32.1891 14.1471 32.4293 14.0487 32.7013C13.9561 32.9733 13.9098 33.2626 13.9098 33.5694ZM26.0452 39.6805C25.3913 39.6805 24.7981 39.5705 24.2657 39.3506C23.7391 39.1249 23.2848 38.8095 22.9029 38.4044C22.5267 37.9993 22.2373 37.519 22.0349 36.9634C21.8323 36.4079 21.731 35.8003 21.731 35.1405V34.776C21.731 34.012 21.8439 33.332 22.0695 32.736C22.2952 32.1342 22.602 31.6249 22.9897 31.2083C23.3774 30.7916 23.8172 30.4761 24.3091 30.262C24.801 30.048 25.3103 29.9409 25.8369 29.9409C26.5083 29.9409 27.0869 30.0566 27.573 30.2881C28.0649 30.5196 28.4672 30.8436 28.7797 31.2603C29.0922 31.6712 29.3236 32.1573 29.4741 32.7187C29.6245 33.2743 29.6998 33.8819 29.6998 34.5416V35.262H22.6858V33.9513H28.0938V33.8298C28.0707 33.4131 27.9839 33.008 27.8334 32.6145C27.6888 32.2209 27.4573 31.8969 27.139 31.6423C26.8207 31.3876 26.3867 31.2603 25.8369 31.2603C25.4723 31.2603 25.1367 31.3384 24.8299 31.4947C24.5233 31.6451 24.26 31.8709 24.04 32.1717C23.8202 32.4727 23.6494 32.8402 23.5279 33.2743C23.4063 33.7082 23.3456 34.2088 23.3456 34.776V35.1405C23.3456 35.5862 23.4063 36.0057 23.5279 36.3992C23.6552 36.7869 23.8375 37.1284 24.0748 37.4235C24.3178 37.7187 24.6101 37.9501 24.9515 38.118C25.2987 38.2858 25.6923 38.3697 26.1321 38.3697C26.6992 38.3697 27.1795 38.2539 27.573 38.0225C27.9665 37.791 28.3108 37.4814 28.606 37.0936L29.5783 37.8663C29.3757 38.1729 29.1181 38.4652 28.8056 38.743C28.4931 39.0207 28.1084 39.2464 27.6512 39.42C27.1997 39.5937 26.6645 39.6805 26.0452 39.6805Z" fill="#F2F2F2"/>
<path d="M48.1374 30.1111L50.1946 33.5312L52.278 30.1111H54.1617L51.0888 34.7465L54.2572 39.5035H52.3995L50.2294 35.9791L48.0592 39.5035H46.1929L49.3527 34.7465L46.2884 30.1111H48.1374Z" fill="#F2F2F2"/>
<path d="M55.7037 21.9756C56.1128 21.9756 56.4445 22.3072 56.4445 22.7163C56.4445 23.1254 56.1128 23.4571 55.7037 23.4571H45.3498L39.2483 39.4139C38.9765 40.1251 38.0183 40.1733 37.6549 39.5547L37.5903 39.4216L32.2981 25.9503C32.1485 25.5696 32.3359 25.1393 32.7167 24.9897C33.0974 24.8401 33.5277 25.0276 33.6773 25.4083L38.4101 37.4559L44.1113 22.5466L44.1692 22.4241C44.3256 22.1497 44.6194 21.9756 44.9418 21.9756H55.7037Z" fill="white"/>
</svg>

<svg xmlns="http://www.w3.org/2000/svg" width="64" height="64" fill="none" viewBox="0 0 64 64"><circle cx="32" cy="32" r="32" fill="#000"/><path fill="#f2f2f2" d="M8.155 31.98v7.527H6.54v-9.393h1.528zm-.33 2.475-.747-.026q.009-.964.252-1.78.243-.825.72-1.432a3.2 3.2 0 0 1 1.19-.938q.711-.338 1.649-.338.66 0 1.215.19.555.183.964.582.408.4.633 1.025t.226 1.51v6.259h-1.606v-6.18q0-.739-.252-1.181a1.44 1.44 0 0 0-.694-.643 2.5 2.5 0 0 0-1.059-.208q-.71 0-1.19.252a2 2 0 0 0-.763.694q-.287.443-.417 1.016a5.7 5.7 0 0 0-.121 1.198m6.085-.886-1.077.33q.009-.773.252-1.484a4 4 0 0 1 .72-1.268 3.4 3.4 0 0 1 1.172-.876q.695-.33 1.589-.33.756 0 1.337.2.59.2.99.616.407.408.616 1.05.208.643.208 1.528v6.172h-1.614v-6.19q0-.79-.252-1.223a1.3 1.3 0 0 0-.695-.617q-.443-.182-1.059-.182-.53 0-.937.182-.408.183-.686.504a2.2 2.2 0 0 0-.425.72 2.7 2.7 0 0 0-.14.868m12.135 6.111a4.6 4.6 0 0 1-1.78-.33 4 4 0 0 1-1.362-.946 4.2 4.2 0 0 1-.868-1.44 5.3 5.3 0 0 1-.304-1.823v-.365q0-1.146.338-2.04a4.6 4.6 0 0 1 .92-1.528 3.9 3.9 0 0 1 1.32-.946 3.8 3.8 0 0 1 1.528-.321q1.007 0 1.736.347.738.348 1.207.972.468.616.694 1.459.226.833.226 1.823v.72h-7.014v-1.31h5.408v-.122a4 4 0 0 0-.26-1.215 2.2 2.2 0 0 0-.695-.973q-.477-.382-1.302-.382a2.19 2.19 0 0 0-1.797.912q-.33.45-.512 1.102a5.6 5.6 0 0 0-.182 1.502v.364q0 .669.182 1.26.191.58.547 1.023.364.443.877.695.52.252 1.18.252.85 0 1.441-.347a3.6 3.6 0 0 0 1.033-.93l.972.773a4.5 4.5 0 0 1-.772.877 3.7 3.7 0 0 1-1.155.677q-.676.26-1.606.26M48.137 30.111l2.058 3.42 2.083-3.42h1.884l-3.073 4.635 3.168 4.758H52.4l-2.17-3.525-2.17 3.525h-1.867l3.16-4.757-3.065-4.636z"/><path fill="#fff" d="M55.704 21.976a.74.74 0 1 1 0 1.481H45.35l-6.102 15.957c-.271.711-1.23.76-1.593.14l-.065-.132-5.292-13.472a.741.741 0 0 1 1.38-.542l4.732 12.048 5.701-14.91.058-.122a.89.89 0 0 1 .773-.448z"/></svg>
